!!!!SEGMENT: pl-wn--mus-iii-86-037--001_zelenski-wladyslaw--dwie-piesni-do-slow-autora-iwara-na-snieznym-krzaku-choiny.krn
!!!cenid: 18xx:3780
!!!COM: Żeleński, Władysław
!!!COM-rismID: pe41024455
!!!CDT: 1837/07/06-1921/01/23
!!!CNT: Polish
!!!GTL: Dwie pieśni do słów Autora Iwara
!!!OTL: Na śnieżnym krzaku choiny
!!!PDT: 1883
!!!AGN:
!!!SMS-siglum: PL-Wn
!!!SMS-shelfmark: Mus.III.86.037
!!!SMS-shelfwork: 001 G
!!!SMS-variant:
!!!SMS-altvar:
!!!NIFC-rismSourceID:
!!!NIFC-rismChildID:
!!!NIFC-islandoraID: none
!!!URL-pdf-islandora:
!!!URL-scan: https://polona.pl/item/dwie-piesni-do-slow-autora-iwara-i-e-teresa-wodzicka,NzQ2OTgyMDY/0 @EN{Scan on Polona} @PL{Skany w portalu Polona}
!!!ONB-nifc:
!!!AIN: 2 piano 1 soprn
!!!key: g
**kern	**kern	**dynam	**kern	**text	**dynam
*part3	*part2	*part2	*part1	*part1	*part1
*staff3	*staff2	*	*staff1	*staff1	*
*I"Fortepian	*I"Fortepian.	*	*I"Śpiew.	*	*
*I'pf	*I'pf	*	*I'Ś	*	*
*Ipiano	*Ipiano	*	*Isoprn	*	*
*ICklav	*ICklav	*	*ICvox	*	*
*clefF4	*clefG2	*	*clefG2	*	*
*k[b-e-]	*k[b-e-]	*	*k[b-e-]	*	*
*g:	*g:	*	*g:	*	*
*M9/8	*M9/8	*	*M9/8	*	*
*^	*	*	*	*	*
*xywh-#3:345,1320,2447,555	*xywh-#3:345,1320,2447,555	*xywh-#3:345,1320,2447,555	*	*xywh-#3:483,527,2318,832	*	*
!	!	!	!	!LO:TX:a:B:t=Andante non troppo lento.	!	!
(<8GG/	4.GG\	4r	p	4r	.	.
4D/)	.	.	.	.	.	.
.	.	[8d^>/ [8b-	.	8r	.	.
=1	=1	=1	=1	=1	=1	=1
*	*	*^	*	*	*	*
*	*	*	*xywh-#3:345,1320,2447,555	*	*	*	*
(<8GG/	4.GG\	8b-/L]	16d\LL]	.	8%9r	.	.
.	.	.	16e-\JJ	.	.	.	.
4D/)	.	(8c/ 8a	4ryy	.	.	.	.
.	.	8B-/J 8g	.	.	.	.	.
(<8GG/	4.GG\	8A/L) 8f#X	4.ryy	.	.	.	.
4D/)	.	(8B-'/ 8g	.	.	.	.	.
.	.	8c'/J 8a	.	.	.	.	.
(<8GG/	4.GG\	4B-'/) 4d	4.ryy	.	.	.	.
4D/)	.	.	.	.	.	.	.
.	.	[8d/ [8b-	.	.	.	.	.
=2	=2	=2	=2	=2	=2	=2	=2
(<8GG/	4.GG\	8b-/L]	16d\LL]	.	4r	.	.
.	.	.	16e-\JJ	.	.	.	.
4D/)	.	(8c/ 8a	4ryy	.	.	.	.
.	.	8B-/J 8g	.	.	8r	.	.
(<8GG/	4.GG\	4A/) 4f#X	4.ryy	<	4r	.	.
4D/)	.	.	.	.	.	.	.
.	.	(8B-/ 8g	.	.	8r	.	.
!	!	!	!	!	!LO:TX:a:i:t=dolce	!	!
(<8GG/	4.GG\	4c/) 4a	4.ryy	[	[4.dd\	Na	.
4D/)	.	.	.	.	.	.	.
.	.	(8d/	.	>	.	.	.
*	*	*v	*v	*	*	*	*
!!LO:LB:g=original
=3	=3	=3	=3	=3	=3	=3
*xywh-#3:312,2175,2457,615	*xywh-#3:312,2175,2457,615	*xywh-#3:312,2175,2457,615	*	*xywh-#3:345,1876,2430,378	*	*
(<8GG/	4.GG\	8c/) 8a	.	16dd\LL]	.	.
.	.	.	.	16ee-\JJ	.	.
4D/)	.	8r	] pp	8cc\	śnie-	.
.	.	(8B-/L 8g	.	8b-\	-żnym	.
(<8GG/	4.GG\	8A/J) 8f#X	.	8a/	krza-	.
4D/)	.	8r	.	8b-/	-ku	.
.	.	(8e-/L 8cc	.	8f#X/	cho-	.
(<8GG/	4.GG\	8d/J) 8b-	.	8g/	-i-	.
4D/)	.	8r	.	8g/	-ny,	.
.	.	(8c/L 8a	.	8a/	Siadł	.
=4	=4	=4	=4	=4	=4	=4
*	*	*^	*	*	*	*
*	*	*	*xywh-#3:312,2175,2457,615	*	*	*	*
(<8GG/	4.GG\	8B-/J) 8g	2.ryy	.	8b-/L	pta-	.
4D/)	.	8r	.	.	8a/J	.	.
!	!	!	!	!	!	!	!LO:DY:a
.	.	(8d/L 8b-	.	.	8g/	-szek,	<
(<8GG/	4.GG\	8c/J) 8a	.	.	8a/	smu-	.
4D/)	.	8r	.	.	8b-\	-tno	.
.	.	(8e-/ 8g	.	.	8cc\	mu	.
(<8GG/	4.GG\	[4.f#X/)	8d\	.	4dd\	by-	[
4D/)	.	.	8r	.	.	.	.
.	.	.	(16c\LL	.	8a/	-ło;	.
.	.	.	16e-\JJ	.	.	.	.
*	*	*v	*v	*	*	*	*
!!LO:LB:g=original
=5	=5	=5	=5	=5	=5	=5
*xywh-#3:371,3060,2414,526	*xywh-#3:371,3060,2414,526	*xywh-#3:371,3060,2414,526	*	*xywh-#3:312,2780,2480,319	*	*
(<8GG/	4.GG\	8d/) 8f#X]	.	16dd\LL	Tęs-	.
.	.	.	.	16ee-\JJ	.	.
4D/)	.	8r	.	8cc\	-knił	.
.	.	(8c#X/L 8g	.	8b-/	do	.
(<8GG/	4.GG\	8cn/J) 8a	.	8a/	cu-	.
4D/)	.	8r	.	8b-/	-dów	.
.	.	(8e-/L 8cc	.	8f#X/	kra-	.
(<8GG/	4.GG\	8d/J) 8b-	.	8g/	-i-	.
4D/)	.	8r	.	8g/	-ny,	.
.	.	(8c/L 8a	.	8a/	Gdzie	.
=6	=6	=6	=6	=6	=6	=6
(<8GG/	4.GG\	8B-/J) 8g	.	8b-/L	zło-	.
4D/)	.	8r	.	8a/J	.	.
.	.	(8B-/L 8g	.	8g/	-te	.
(<8F/	4.F\	8c/J) 8a	.	8a/	słoń-	.
4A/)	.	8r	.	8b-\	-ce	.
.	.	(8c'/ 8f 8a	.	8cc\	świe-	.
(<8D/	4.D\	4f'/ 4a 4dd	.	4dd\	-ci-	.
4A/)	.	.	.	.	.	.
.	.	8d'/) 8f 8a	.	8a/	-ło,	.
=7	=7	=7	=7	=7	=7	=7
(<4G/	4.G\	(4d/ 4g 4b-	.	8b-\L	zło-	.
.	.	.	.	8cc\J	.	.
8B-/)	.	8g/) 8b- 8dd	.	8dd\	-te	.
[4.F:\ [4.A: [4.c:	4ryy	[4.f:\ [4.a: [4.cc: [4.ff:	.	4.ff\	słoń-	.
.	2ryy	.	.	.	.	.
4F;\] 4A] 4c]	.	4f;\] 4a] 4cc] 4ff]	.	4.cc;\	-ce!	.
(16c\LL	.	(16cc\LL	pp	.	.	.
16e-\JJ	.	16ee-\JJ	.	.	.	.
*v	*v	*	*	*	*	*
!!LO:PB:g=original
=8	=8	=8	=8	=8	=8
*xywh-#4:433,700,2425,544	*xywh-#4:433,700,2425,544	*	*xywh-#4:445,399,2412,329	*	*
4d\)	4dd\)	<	4r	.	.
(16c\LL	(16cc\LL	.	8r	.	.
16e-\JJ	16ee-\JJ	.	.	.	.
4d\)	4dd\)	[[	4r	.	.
(16c\LL	(16cc\LL	>	8r	.	.
16e-\JJ	16ee-\JJ	.	.	.	.
8d\L)	8dd\L)	.	[4.dd\	Po-	.
(8c'\	(8cc'\	.	.	.	.
8B-'\J)	8b-'\J)	]	.	.	.
=9	=9	=9	=9	=9	=9
(16A\LL	(16a/LL	.	16dd\LL]	.	.
16c\J	16cc/J	.	16ee-\JJ	.	.
8A\)	8a/)	.	8cc\	-le-	.
8G'\J	8g'/J	.	8b-/	-ciał	.
(16F#X\LL	(16f#X/LL	.	8a/	za	.
16A\J	16a/J	.	.	.	.
8G\)	8g/)	.	8b-/	zło-	.
([8D^\J	[8d^/J	.	8f#X/	-tem	.
16D\LL]	(16d/LL]	.	8g/	słoń-	.
16Fn\J	16fn/J	.	.	.	.
8E-\)	8e-/)	.	8g/	-cem,	.
8C'\J	8e-'/J 8a	.	8a/	Gdzie	.
=10	=10	=10	=10	=10	=10
*^	*^	*	*	*	*
*	*xywh-#4:433,700,2425,544	*xywh-#4:433,700,2425,544	*	*	*	*	*
(<8GG/	4.GG\	8d/ 8b-	4ryy	.	8b-/	kwia-	.
4D/)	.	8r	.	.	8a/	-tów	.
.	.	(8g/L	(16c\LL	.	8g/	ty-	.
.	.	.	16e-\JJ	.	.	.	.
(<8GG/	4.GG\	8d/J)) 8f#X	4ryy	.	8a/L	-sią-	.
4D/)	.	8r	.	.	8b-/J	.	.
.	.	(8cc/L	(16en\LL	.	8cc\	-ce	.
.	.	.	16g\JJ	.	.	.	.
!	!	!	!	!	!	!	!LO:DY:a
(<8GG/	4.GG\	8f#/J)) 8a	4ryy	<	8dd\	lśni-	<
4D/)	.	8r	.	.	8a/	-ło	.
.	.	(8dd/	(16f#\LL	.	8a/	Na	[[
.	.	.	16a\JJ)	[	.	.	.
!!LO:LB:g=original
=11	=11	=11	=11	=11	=11	=11	=11
*xywh-#4:438,1501,2420,547	*xywh-#4:438,1501,2420,547	*xywh-#4:438,1501,2420,547	*xywh-#4:438,1501,2420,547	*	*xywh-#4:433,1244,2428,285	*	*
!	!	!	!	!	!LO:TX:a:i:t=espressivo.	!	!
(<8GG/	4.GG\	8g/) 8b-	4ryy	.	[4.b-\	pal-	.
4D/)	.	8r	.	.	.	.	.
.	.	(8b-/L	(16c\LL	.	.	.	.
.	.	.	16e-\JJ	.	.	.	.
(<8A-X/	4.A-\	8d/J)) 8b-	4ryy	.	8b-\L]	.	.
4B-/)	.	8r	.	.	8cc\J	.	.
.	.	(8b-/L	(16d\LL	.	8dd\	-my	.
.	.	.	16f\JJ	.	.	.	.
(<8G/	4.G\	8e-/J)) 8b-	4.ryy	.	8ee-\	szczy-	.
!	!	!	!	!	!	!	!LO:HP:a
4B-/)	.	8r	.	.	8dd\	-cie	<
.	.	(8g'\ 8b- 8ee-	.	.	8ee-\	błysz-	.
*	*	*v	*v	*	*	*	*
=12	=12	=12	=12	=12	=12	=12
(<8E-/	4.E-\	4b-\) 4ee- 4gg	.	4.gg\	-czą-	[
4B-/)	.	.	.	.	.	.
.	.	(8g'\ 8b-	<	.	.	.
(<8D/	4.D\	[4.g\) [4.b- [4.gg	.	4g/	-cym	.
4B-/)	.	.	.	.	.	.
.	.	.	.	8r	.	.
(<8C/	4.C\	4g\] 4b-] 4gg]	[	[4.b-/	Spo-	.
4B-/)	.	.	.	.	.	.
.	.	8e-/ 8g	.	.	.	.
=13	=13	=13	=13	=13	=13	=13
*	*	*^	*	*	*	*
*	*	*	*xywh-#4:438,1501,2420,547	*	*	*	*
(<8C/	4.C\	[4.B-/ [4.e- [4.b-	2.ryy	pp	8b-/]	.	.
4G/)	.	.	.	.	8f#X/	-czął	.
.	.	.	.	.	8a/	lecz	.
(<8C/	4.C\	4B-/] 4e-] 4b-]	.	.	8g/	smut-	.
4G/)	.	.	.	.	8a/	-no	.
.	.	((>8B-/ 8e-	.	.	8b-/	mu	.
8C/	(4.FF\ 4.C	4g/)	16A\LL	.	(4ee-\	by-	.
.	.	.	16d\J	.	.	.	.
4F/	.	.	8c\J)	.	.	.	.
.	.	((8e-/ 8a	8ryy	.	8dd\)	.	.
*v	*v	*	*	*	*	*	*
*	*v	*v	*	*	*	*
!!LO:LB:g=original
=14	=14	=14	=14	=14	=14
*xywh-#4:383,2256,2402,555	*xywh-#4:383,2256,2402,555	*	*xywh-#4:438,2049,2358,269	*	*
4BB-/)	4d/)) 4b-	.	4dd\	-ło.	.
(16G\LL	(16g/LL	<	8r	.	.
16B-\JJ	16b-/JJ	.	.	.	.
4A-X\)	4a-X/)	.	4r	.	.
(16G\LL	(16g/LL	.	8r	.	.
16B-\JJ	16b-/JJ	.	.	.	.
4A-\)	4a-/)	.	4r	.	.
(16A-\LL	(16a-\LL	.	8r	.	.
16c-X\JJ	16cc-X\JJ	[[	.	.	.
=15	=15	=15	=15	=15	=15
4B-\)	4b-/)	.	4r	.	.
(16B-\LL	(16b-\LL	.	8r	.	.
16d-X\JJ	16dd-X\JJ	.	.	.	.
8c-X\L)	8cc-X/L)	.	4r	.	.
(8A-X'\	(8a-X'/	.	.	.	.
8G-X'\J	8g-X'/J	.	8r	.	.
8F'\L	8f'/L	>	4r	.	.
8A-'\	8a-'/	.	.	.	.
8E-'\J)	8e-'/J)	]]	8cc-X\	Chciał	.
=16	=16	=16	=16	=16	=16
*^	*	*	*	*	*
*	*xywh-#4:383,2256,2402,555	*	*	*	*	*
*	*ped	*	*	*	*	*
!	!	!	!	!LO:TX:a:i:t=esspressivo.	!	!
[4.D-X/	(4.D-\	16r	.	4.ee-\	śpie-	.
.	.	16c-X/LL	.	.	.	.
.	.	16f/	.	.	.	.
.	.	16a-X/	.	.	.	.
.	.	16f/	.	.	.	.
.	.	16d-X/JJ	.	.	.	.
2.D-/]	2.DD-X\)	16c-/LL	.	4a-X/	-wać,	.
.	.	16d-/	.	.	.	.
.	.	16f/	.	.	.	.
.	.	16a-/	.	.	.	.
.	.	16f/	.	8r	.	.
.	.	16d-/JJ	.	.	.	.
.	.	16c-/LL	.	8a-/	pieś-	.
.	.	16d-/	.	.	.	.
.	.	16f/	.	8b-/	-ni	.
.	.	16a-/	.	.	.	.
.	.	16f/	.	8cc\	west-	.
*	*Xped	*	*	*	*	*
.	.	16d-/JJ	.	.	.	.
!!LO:LB:g=original
=17	=17	=17	=17	=17	=17	=17
*xywh-#4:412,3055,2389,573	*xywh-#4:412,3055,2389,573	*xywh-#4:412,3055,2389,573	*	*xywh-#4:448,2765,2353,316	*	*
[4.D-X/	(4.D-\	16B-/LL	.	4.dd-X\	-chnie-	.
.	.	16d-X/	.	.	.	.
.	.	16g-X/	.	.	.	.
.	.	16b-/	.	.	.	.
.	.	16g-/	.	.	.	.
.	.	16d-/JJ	.	.	.	.
2.D-/]	2.DD-X\)	16B-/LL	.	4b-\	-nie	.
.	.	16d-/	.	.	.	.
.	.	16g-/	.	.	.	.
.	.	16b-/	.	.	.	.
.	.	16g-/	.	8r	.	.
.	.	16d-/JJ	.	.	.	.
.	.	16B-/LL	.	4r	.	.
.	.	16d-/	.	.	.	.
.	.	16g-/	.	.	.	.
.	.	16b-/	.	.	.	.
.	.	16g-/	.	8dd-X\	Kra-	.
.	.	16d-/JJ	.	.	.	.
=18	=18	=18	=18	=18	=18	=18
[4.BB-/	(4.BB-\	16d-X/LL	.	[4.ff-X\	-ka-	.
.	.	16f-X/	.	.	.	.
.	.	16a-X/	.	.	.	.
.	.	16dd-X/	.	.	.	.
.	.	16a-/	.	.	.	.
.	.	16f-/JJ	.	.	.	.
2.BB-/]	2.BBB-\)	16d-/LL	.	8ff-\L]	.	.
.	.	16f-/	.	.	.	.
.	.	16a-/	.	8ee-\J	.	.
.	.	16dd-/	.	.	.	.
.	.	16a-/	.	8ff-\	-nie	.
.	.	16f-/JJ	.	.	.	.
.	.	16d-/LL	.	8a-X/	sę-	.
.	.	16f-/	.	.	.	.
.	.	16a-/	.	8g/	-pów	.
.	.	16dd-/	.	.	.	.
.	.	16a-/	.	8a-/	stłu-	.
.	.	16f-/JJ	.	.	.	.
*v	*v	*	*	*	*	*
=19	=19	=19	=19	=19	=19
*	*^	*	*	*	*
*	*	*xywh-#4:412,3055,2389,573	*	*	*	*
4r	(>[4.d-X/ [4.f-X 4.a-X 4.dd-X	2.ryy	<	4.dd-X\	-mi-	.
(16A-X\LL	.	.	.	.	.	.
16c-X\JJ	.	.	.	.	.	.
4B-\)	(>4.d-/_) 4.f-_ 4.a-	.	[ <	4.f-X/	-ło;	.
(16A-\LL	.	.	.	.	.	.
16c-\JJ	.	.	.	.	.	.
8B-\)	8f-/L] 8a-	8d-\]	[	4r	.	.
8r	8gn/)	8ryy	.	.	.	.
8r	8a-'/J	8ryy	.	8a-X/	Chciał	.
*	*v	*v	*	*	*	*
!!LO:PB:g=original
=20	=20	=20	=20	=20	=20
*xywh-#5:233,700,2392,460	*xywh-#5:233,700,2392,460	*	*xywh-#5:286,402,2338,326	*	*
*ped	*	*	*	*	*
(4.E-\	16r	.	4.dd-X\	pła-	.
.	16d-X/LL	.	.	.	.
.	16g/	.	.	.	.
.	16b-/	.	.	.	.
.	16g/	.	.	.	.
.	16d-/JJ	.	.	.	.
4.EE-/) 4.E-	16B-/LL	.	[4.b-\	-kać,_	.
.	16d-/	.	.	.	.
.	16g/	.	.	.	.
.	16b-/	.	.	.	.
.	16g/	.	.	.	.
.	16d-/JJ	.	.	.	.
4.EEn/ 4.En	16B-/LL	.	4b-\]	.	.
.	16d-/	.	.	.	.
.	16g/	.	.	.	.
.	16b-/	.	.	.	.
!	!	!	!	!	!LO:DY:a
.	16g/	.	8b-\	chciał	p
*Xped	*	*	*	*	*
.	16d-/JJ	.	.	.	.
=21	=21	=21	=21	=21	=21
[2.FF/ [2.F	16B-/LL	.	([4.ff\	pła-	.
.	16d-X/	.	.	.	.
.	16f/	.	.	.	.
.	16b-/	.	.	.	.
.	16f/	.	.	.	.
.	16d-/JJ	.	.	.	.
.	16B-/LL	.	4ff\]	.	.
.	16d-/	.	.	.	.
.	16f/	.	.	.	.
.	16b-/	.	.	.	.
.	16f/	.	8dd-X\)	.	.
.	16d-/JJ	.	.	.	.
4.FF/] 4.F]	16B-/LL	.	4b-\	-kać,	.
.	16d-/	.	.	.	.
.	16f/	.	.	.	.
.	16b-/	.	.	.	.
.	16f/	.	8b-\	Pu-	.
.	16d-/JJ	.	.	.	.
=22	=22	=22	=22	=22	=22
!	!	!	!LO:TX:a:i:t=un poco stringendo.	!	!
4r	[2.c/ [2.e- [2.b-	.	[4.b-\	-sty-	.
(16F\LL	.	.	.	.	.
16A-X\JJ	.	.	.	.	.
4G-X\)	.	.	4b-\]	.	.
(16F\LL	.	.	8b-\	-ni	.
16A-\JJ	.	.	.	.	.
8G-\)	4.c/] 4.e-] 4.b-]	.	8b-/L	tchnie-	.
8r	.	.	8an/J	.	.
8r	.	.	8b-\	-nie	.
!!LO:LB:g=original
=23	=23	=23	=23	=23	=23
*xywh-#5:240,1425,2395,510	*xywh-#5:240,1425,2395,510	*	*xywh-#5:233,1161,2401,286	*	*
4r	(>[2.c/ [2.e- 2.a	.	4cc\	Ża-	.
(16F#X\LL	.	.	8cc\	-rem	.
16A\JJ	.	.	.	.	.
!	!	!	!	!	!LO:DY:a
4Gn\)	.	.	4.ee-\	łzę	<
(16G\LL	.	>	.	.	.
16B-\JJ	.	.	.	.	.
4A\)	4.c/]) 4.e-] 4.g	.	8g/	w o-	.
.	.	]	8a/	-ku	.
8r	.	.	8b-/	spa-	[[
=24	=24	=24	=24	=24	=24
!	!LO:TX:b:i:t=riten.	!	!	!	!LO:DY:a
4r	[2.A/ [2.c [2.g	.	4.dd\	-li-	>
(16D\LL	.	.	.	.	.
16F\JJ	.	>	.	.	.
4E-\)	.	.	4cc\	-ło.	]
(16D\LL	.	.	8r	.	.
16F\JJ	.	.	.	.	.
4E-\)	(>4.A/_ 4.c_ 4.g]	]	4r	.	.
(16C\LL	.	.	8r	.	.
16E-\JJ	.	.	.	.	.
=25	=25	=25	=25	=25	=25
!	!LO:TX:a:B:t=a tempo.	!	!	!	!
4D\)	4A/]) 4c] 4f#X	pp	4r	.	.
(16c\LL	(16cc\LL	.	8r	.	.
16e-\JJ	16ee-\JJ	.	.	.	.
4d\)	4dd\)	.	4r	.	.
(16c\LL	(16cc\LL	.	8r	.	.
16e-\JJ	16ee-\JJ	.	.	.	.
8d\L)	8dd\L)	.	(4.dd\	Wró-	.
(8c'\	(8cc'\	.	.	.	.
8B-'\J)	8b-'\J)	.	.	.	.
=26	=26	=26	=26	=26	=26
!	!LO:TX:b:i:t=leggiero.	!	!	!	!
(16A\LL	(16a/LL	.	16dd\LL)	.	.
16c\J	16cc/J	.	16ee-\JJ	.	.
8A\)	8a/)	.	8cc\	-cił	.
8G'\J	8g'/J	.	8b-\	do	.
(16F#X\LL	(16f#X/LL	.	8a/	śnie-	.
16A\J	16a/J	.	.	.	.
8G\)	8g/)	.	8b-/	-gów	.
([8D^\J	([8d^/J	.	8f#X/	kra-	.
16D\LL]	16d/LL]	.	8g/	-i-	.
16Fn\J	16fn/J	.	.	.	.
8E-\)	8e-/)	.	8g/	-ny,	.
8C'\J	8e-'/J 8a	.	8a/	Tu	.
!!LO:LB:g=original
=27	=27	=27	=27	=27	=27
*^	*^	*	*	*	*
*xywh-#5:212,2200,2426,591	*xywh-#5:212,2200,2426,591	*xywh-#5:212,2200,2426,591	*xywh-#5:212,2200,2426,591	*	*xywh-#5:240,1935,2398,279	*	*
(<8GG/	4.GG\	8d/ 8b-	4ryy	.	8b-/L	już	.
4D/)	.	8r	.	.	8a/J	.	.
.	.	8g/L	(16c\LL	.	8g/	dlań	.
.	.	.	16e-\J	.	.	.	.
(<8GG/	4.GG\	8f#X/J	8d\J)	.	8a/	miej-	.
4D/)	.	8r	8ryy	.	8b-\	-sce	.
.	.	8cc/L	(16en\LL	.	8cc\	nie	.
.	.	.	16g\J	.	.	.	.
(<8GG/	4.GG\	8a/J	8fn\J)	.	4dd\	by-	.
4D/)	.	8r	8ryy	.	.	.	.
.	.	8cc/L	(16f\LL	.	8a/	-ło,	.
.	.	.	16a\JJ	.	.	.	.
=28	=28	=28	=28	=28	=28	=28	=28
!	!	!	!	!	!LO:TX:a:i:t=espress.	!	!
(<8GG/	4.GG\	8fn/) 8dd/J	4ryy	.	(4dd\	Siadł	.
4D/)	.	8r	.	.	.	.	.
.	.	8bn/L	(16d\LL	.	8bn\)	.	.
.	.	.	16f\JJ	.	.	.	.
(<8GG/	4.GG\	8Bn/) 8gJ	4ryy	.	4g/	sam	.
4D/)	.	8r	.	.	.	.	.
.	.	8f#X/L	(16A\LL	.	8a/	na	.
.	.	.	16c\JJ	.	.	.	.
(<8GG/	4.GG\	8B/) 8gJ	4ryy	.	8b/	krza-	.
4D/)	.	8r	.	.	8cc\	-ku	.
.	.	8fn/L	(16A-X\LL	.	8dd\	cho-	.
.	.	.	16B\JJ	.	.	.	.
=29	=29	=29	=29	=29	=29	=29	=29
(8CC/	4.CC\	8G/) 8e-J	4ryy	.	(4ee-\	-i-	.
4GG/)	.	8r	.	.	.	.	.
.	.	8f/L	(16A-X\LL	.	8dd\)	.	.
.	.	.	16d\JJ	.	.	.	.
(8CC/	4.CC\	8G/) 8e-J	4ryy	<	[4.cc\	-ny,_	.
4GG/)	.	8r	.	.	.	.	.
.	.	8f/L	(16A-\LL	.	.	.	.
.	.	.	16d\JJ	.	.	.	.
(8CC/	4.CC\	8G/) 8e-J	4ryy	.	4cc\]	.	.
4GG/)	.	8r	.	.	.	.	.
.	.	(8f/	(16A-\LL	[	8cc\	I	.
.	.	.	16d\JJ	.	.	.	.
*v	*v	*	*	*	*	*	*
!!LO:LB:g=original
=30	=30	=30	=30	=30	=30	=30
*xywh-#5:218,3055,2410,625	*xywh-#5:218,3055,2410,625	*xywh-#5:218,3055,2410,625	*	*xywh-#5:212,2791,2426,301	*	*
*ped	*	*	*	*	*	*
!	!LO:TX:b:i:t=ritard.	!	!	!	!	!
(8CC/L	8.G/L)) 8.e- 8.g	8.ryy	.	(4gg\	sko-	.
8GG/	.	.	.	.	.	.
.	(16G/L	16ryy	.	.	.	.
[8GG/J [8C	(<16c/	8c\	.	8ee-\)	.	.
.	[16e-/JJ	.	.	.	.	.
4CC/) 4GG] 4C]	4G/) 4c) 4e-] 4g	4ryy	.	4cc\	-nał	.
8r	8r	2ryy	.	8r	.	.
!	!LO:TX:a:B:t=a tempo.	!	!	!	!	!
4.D-X/	(4.B-/ 4.e- 4.g	.	pp	4r	.	.
.	.	.	.	8r	.	.
*	*v	*v	*	*	*	*
=31	=31	=31	=31	=31	=31
4.C/	4.c/ 4.e- 4.a-X	.	4r	.	.
.	.	.	8r	.	.
4.C#X/	4.B-/ 4.e- 4.g	.	4r	.	.
.	.	.	8r	.	.
!	!	!	!	!	!LO:DY:a
!	!	!	!	!	!LO:DY:a
4.D/	4A/) 4d 4f#X	<	[4.dd\	Ci-	p < [[
.	(16A/LL	.	.	.	.
.	16c/JJ	[[	.	.	.
=32	=32	=32	=32	=32	=32
*	*^	*	*	*	*
*	*	*xywh-#5:218,3055,2410,625	*	*	*	*
[2.GG/	4.Bn/ 4.d 4.fn	4.ryy	.	4.dd\_	.	.
.	4.e-/	4c\	.	16dd\LL]	.	.
.	.	.	.	16ee-\JJ	.	.
!	!	!	!	!LO:TX:a:i:t=calando.	!	!
.	.	.	.	8cc\	-szej	.
.	.	8G\	>	8b-\	mu	.
!	!	!	!	!	!	!LO:DY:a
4.GG/]	4.d/)	4F#X\	.	8a/L	by-	>
.	.	.	.	8b-/	.	.
.	.	8c\	]	8f#X/J	.	]]
=33	=33	=33	=33	=33	=33	=33
[4.GG\	4.Bn/ 4.d	4Fn</	.	[2.g/	-ło._	.
.	.	(16F</LL	pp	.	.	.
.	.	16A-X</JJ	.	.	.	.
4GG\]	4B/ 4d	4G</)	.	.	.	.
(16D\LL	8r	2ryy	.	.	.	.
16F\JJ	.	.	.	.	.	.
4E-\)	4r	.	.	4.g/_	.	.
(16C\LL	(16An/LL	.	.	.	.	.
16E-\JJ	16c/JJ	.	.	.	.	.
*	*v	*v	*	*	*	*
=34	=34	=34	=34	=34	=34
*ped	*	*	*	*	*
2.GG/) 2.D	2.Bn/) 2.g	ppp	4g/]	.	.
.	.	.	8r	.	.
.	.	.	4r	.	.
*Xped	*	*	*	*	*
.	.	.	8r	.	.
==	==	==	==	==	==
*-	*-	*-	*-	*-	*-
!!!RDF**kern: > = above
!!!RDF**kern: < = below
!!!system-decoration: s1[(s2,s3)]
!!!ENC: Andrzej Gręziak
!!!END: 2022-03-23
!!!ENC: Urszula Świątek
!!!END: 2022-03-26
!!!YEC: Copyright 2022 Narodowy Instytut Fryderyka Chopina (https://polishscores.org)
!!!YEM: License CC-BY-4.0 (https://creativecommons.org/licenses/by/4.0)
!!!IIIF: https://polona.pl/iiif/item/NzQ2OTgyMDY/manifest.json
!!!ENC-iiif: Olaf Gawdzik
!!!END-iiif: 2022-09-16
